X:1
T:Title
%%score 1 2 3 4
L:1/8
M:4/2
K:C
V:1 treble nm="Part_1"
V:2 treble nm="Part_2"
V:3 treble-8 nm="Part_3"
V:4 bass nm="Part_4"
V:1
 A6 A2 A4 B4 | c3 B c2 d2 e3 f g2 a2 | f2 e/f/g/f/ e4 d4 z4 | z gfg e4 z F/G/ A/B/c/d/ eddc | %4
w: Violino * II *||||
 d2 de ^c2 d4 c2 d4 | z dcd B4 z cBc A4 | z A/B/ c/d/e/f/ gffe f2 fg e3 e | !fermata!d8 || z16 | %9
w: |||||
 z16 | z16 | z16 | z16 | z16 | z16 | z16 | z16 |[M:6/2] z24 | z24 | z24 | z24 | z24 | z24 | z24 | %24
w: |||||||||||||||
 z24 | z24 |[M:4/2] z16 | z16 | z16 | z16 | z16 | z16 |[M:4/2][K:treble] A6 A2 A4 B4 | %33
w: ||||||||Violino * II *|
 c3 B c2 d2 e3 f g2 a2 | f2 e/f/g/f/ e4 d4 z4 | z gfg e4 z F/G/ A/B/c/d/ eddc | %36
w: |||
 d2 de ^c2 d4 c2 d4 | z dcd B4 z cBc A4 | z A/B/ c/d/e/f/ gffe f2 fg e3 e | !fermata!d8 || z16 | %41
w: |||||
 z16 | z16 | z16 | z16 | z16 | z16 | z16 | z16 | z16 | z16 |[M:4/4] z8 |[M:6/2] z24 | z24 | z24 | %55
w: ||||||||||||||
 z24 | z24 | z24 | z24 | z24 | z24 |[M:4/2] z16 | z16 | z16 | z16 | z16 | z16 | z16 |] %68
w: |||||||||||||
V:2
 ^F6 F2 F4 ^G4 | A3 G A2 B2 c3 d e2 f2 | d2 d4 ^c2 d4 z dcd | B4 z cBc A4 z A/B/ c/d/e/f/ | %4
 gffe f2 fg e3 e d4 | z4 z gfg e4 z F/G/ A/B/c/d/ | edd^c d2 de c2 d4 c2 | !fermata!d8 || z16 | %9
 z16 | z16 | z16 | z16 | z16 | z16 | z16 | z16 |[M:6/2] z24 | z24 | z24 | z24 | z24 | z24 | z24 | %24
 z24 | z24 |[M:4/2] z16 | z16 | z16 | z16 | z16 | z16 |[M:4/2][K:treble-8] z16 | z16 | z16 | z16 | %36
 z16 | z16 | z16 | z8 || z2 d2 d4 d2 A2 B2 cd | A4 G2 gf e2 d2 c4 | z2 e2 e4 e2 B2 c2 de | %43
 B4 A2 ag f2 e2 d4 | z8 z2 gf e2 d2 | c4 z cde f2 e2 d4 | z def g2 f2 e2 e4 dc | %47
 d4 d2 g3 e f/e/f/d/ e4 | d4 z def g2 f2 e4 | z efg a2 g2 f2 d4 c_B | cc f3 g f2 e4 d4 | %51
[M:4/4] z2 d2 B3 B |[M:6/2] g16 g8 | e8 e4 c4 d4 e4 | f8 f8 e8 | f16 z8 | z24 | z8 z8 d8 | %58
 B8 B4 G4 A4 B4 | c8 c4 A4 B4 c4 | d8 d8 ^c8 |[M:4/2] d4 dc d/c/B/A/ B/A/G/A/ B/c/d/e/ f2 d2 | %62
 e2 dc d4 d2 f2 f2 e2 | f4 z4 z2 g2 g2 ^f2 | g4 gf g/f/e/d/ e/d/c/d/ e/f/g/e/ f2 d2 | %65
 e2 dc d4 d G/A/ B/c/d/e/ f/c/d/e/ f/e/f/d/ | e<fg<f e3 d d8- | d16 |] %68
V:3
 z16 | z16 | z16 | z16 | z16 | z16 | z16 | z8 || d6 d2 f4 d4 | z2 dd dccB c3 c c2 B2 | %10
 c2 d2 e2 B/c/d/c/ B4 A4 | z4 z2 ee g4 e4 | z2 ee gffe f3 f f2 A2 | B2 c2 de/f/gf e4 d4 | %14
 z2 d2 B2 Be cB c3 c c2 | z2 cc d2 ff f2 e2 f4 | z4 z2 dd e2 gg g2 ^f2 |[M:6/2] g16 g8 | %18
 e8 e4 c4 d4 e4 | f8 f8 e8 | f16 z8 | z24 | z8 z8 d8 | B8 B4 G4 A4 B4 | c8 c4 A4 B4 c4 | %25
 d8 d8 ^c8 |[M:4/2] d4 dc d/c/B/A/ B/A/G/A/ B/c/d/e/ f2 d2 | e2 dc d4 d2 f2 f2 e2 | %28
 f4 z4 z2 g2 g2 ^f2 | g4 gf g/f/e/d/ e/d/c/d/ e/f/g/e/ f2 d2 | e2 dc d4 d2 e2 fd/e/ f/e/f/d/ | %31
 e6 e2 !fermata!d8 |[M:4/2][K:treble] ^F6 F2 F4 ^G4 | A3 G A2 B2 c3 d e2 f2 | d2 d4 ^c2 d4 z dcd | %35
 B4 z cBc A4 z A/B/ c/d/e/f/ | gffe f2 fg e3 e d4 | z4 z gfg e4 z F/G/ A/B/c/d/ | %38
 edd^c d2 de c2 d4 c2 | !fermata!d8 || z16 | z16 | z16 | z16 | z16 | z16 | z16 | z16 | z16 | z16 | %50
 z16 |[M:4/4] z8 |[M:6/2] z24 | z24 | z24 | z24 | z24 | z24 | z24 | z24 | z24 |[M:4/2] z16 | z16 | %63
 z16 | z16 | z16 | z16 | z16 |] %68
V:4
 D,6 D,2 D,4 B,,4 | A,,4 A,,2 G,,2 C,4 C,2 A,,2 | _B,,2 G,,2 A,,4 D,4 D,2 ^F,2 | %3
 G,2 B,,2 C,2 E,2 F,4 C,4 | _B,,4 A,,2 F,,2 G,,2 A,,2 D,4 | D,2 ^F,2 F,2 B,,2 C,2 E,2 =F,4 | %6
 C,4 _B,,4 A,,2 F,,2 G,,2 A,,2 | !fermata!D,8 || D,8 D,8 | D,8 A,,4 A,,2 ^G,,2 | %10
 A,,2 B,,2 C,2 D,2 E,4 A,,4- | A,,2 B,,2 C,4 C,8 | C,8 D,4 D,4 | G,,2 A,,2 _B,,2 G,,2 A,,4 D,4 | %14
 D,4 G,,2 E,2 A,,8 | F,,4 _B,,2 A,,2 C,4 F,,2 F,F, | F,3 E, G,4 C,2 B,,2 D,4 |[M:6/2] G,,16 G,,8 | %18
 C,16 C,8 | A,,8 _B,,8 C,8 | F,,12 F,4 G,4 A,4 | _B,8 G,8 A,8 | D,16 D,8 | G,,16 G,,8 | C,16 C,8 | %25
 _B,,8 G,,8 A,,8 |[M:4/2] D,8 G,,4 D,2 B,,2 | C,2 A,,2 _B,,4 B,,2 A,,2 B,,2 C,2 | %28
 F,2 E,2 F,2 G,2 C,2 B,,2 C,2 D,2 | G,,8 C,4 D,2 B,,2 | C,2 A,,2 G,,4 G,2 E,2 D,4 | %31
 A,,8 !fermata!D,8 |[M:4/2] D,6 D,2 D,4 B,,4 | A,,4 A,,2 G,,2 C,4 C,2 A,,2 | %34
 _B,,2 G,,2 A,,4 D,4 D,2 ^F,2 | G,2 B,,2 C,2 E,2 F,4 C,4 | _B,,4 A,,2 F,,2 G,,2 A,,2 D,4 | %37
 D,2 ^F,2 F,2 B,,2 C,2 E,2 F,4 | C,4 _B,,4 A,,2 F,,2 G,,2 A,,2 | !fermata!D,8 || %40
 D,8- D,4 G,,2 B,,2 | D,4 G,,4 C,2 G,,2 C,4 | E,8- E,4 C,2 A,,2 | E,4 A,,4 D,2 G,,2 D,2 D,C, | %44
 B,,2 A,,2 G,,2 G,F, E,2 D,2 C,2 B,,2 | A,,2 G,,2 F,2 E,2 D,2 C,2 B,,2 A,,2 | %46
 G,2 F,2 E,2 D,2 C,2 B,,2 A,,4 | G,,4 G,2 E,2 A,2 D,2 A,,4 | %48
 D,2 C,2 B,,2 A,,2 G,,G,,A,,B,, C,2 B,,2 | A,,2 G,,2 F,,F,,G,,A,, _B,,4 G,,4 | %50
 F,,4 _B,,2 G,,2 A,,4 D,4 |[M:4/4] D,4 G,,4 |[M:6/2] G,,16 G,,8 | C,16 C,8 | A,,8 _B,,8 C,8 | %55
 F,,12 F,4 G,4 A,4 | _B,8 G,8 A,8 | D,16 D,8 | G,,16 G,,8 | C,16 C,8 | _B,,8 G,,8 A,,8 | %61
[M:4/2] D,8 G,,4 D,2 B,,2 | C,2 A,,2 _B,,4 B,,2 A,,2 B,,2 C,2 | F,2 E,2 F,2 G,2 C,2 B,,2 C,2 D,2 | %64
 G,,8 C,4 D,2 B,,2 | C,2 A,,2 G,,4 G,2 E,2 D,4 | A,,8 D,8- | D,16 |] %68

